X:1
T:Title
L:1/8
Q:1/4=100
M:2/4
K:Bb
V:1 treble nm="Grand Piano"
V:1
 z2 GA | B2 A2 | G2 GA | BA cB/A/- | AG ^FG | A2 G2 | ^FF FG/A/- | AG BA/G/- | GG GA | B2 A2 | %10
 G2 GA | BA cB/A/- | AG ^FG | A2 G2 | ^FF FG/A/- | AG BA/G/- | G G3 | z2 DD | ED DD/G/- | GD DD | %20
 ED DD/A/- | A2 AB | cc cc/c/- | cB AB | cc ec/d/- | d2 DD | ED DD/G/- | GD DD | ED DD/A/- | %29
 A2 AB | cc cc/c/- | cB AB | cc ec/d/- | d4 |] %34

